src/icons/outline/symbols/pen.svg

<svg width="24" height="24" viewBox="0 0 24 24" fill="none" xmlns="http://www.w3.org/2000/svg">
<g clip-path="url(#clip0_4191_639)">
<path fill-rule="evenodd" clip-rule="evenodd" d="M18.9591 1.00009C19.4905 0.996494 20.0179 1.0987 20.5098 1.2999C21.0015 1.50104 21.4488 1.79715 21.8253 2.17197L21.8272 2.17392C22.2023 2.55029 22.499 2.99764 22.7003 3.48935C22.9016 3.98123 23.0037 4.50867 23.0001 5.04013C22.9965 5.57151 22.8877 6.09699 22.6798 6.58603C22.4724 7.07379 22.1708 7.51608 21.7921 7.88681L8.50301 21.1749C8.41591 21.262 8.3069 21.325 8.18758 21.3556L1.85848 22.9786C1.62314 23.039 1.37307 22.9707 1.20125 22.7989C1.02946 22.6271 0.961241 22.377 1.02157 22.1417L2.64364 15.8126C2.67423 15.6932 2.73718 15.5843 2.8243 15.4972L16.1124 2.2081C16.4832 1.82945 16.9254 1.52771 17.4132 1.3204C17.9022 1.11262 18.4278 1.00374 18.9591 1.00009ZM2.64168 21.3585L7.22469 20.1827L3.81649 16.7765L2.64168 21.3585ZM4.61239 15.6534L8.34676 19.3868L20.3868 7.34677L16.6534 3.6124L4.61239 15.6534ZM18.9688 2.37509C18.619 2.37746 18.2732 2.44925 17.9513 2.58603C17.8582 2.62558 17.7674 2.67011 17.6798 2.71982L21.2794 6.3204C21.3293 6.23251 21.3744 6.14136 21.4141 6.04794C21.5509 5.7261 21.6227 5.38006 21.6251 5.03036C21.6274 4.68081 21.5602 4.33437 21.4278 4.01083C21.2955 3.68757 21.101 3.39314 20.8546 3.1456C20.6069 2.89926 20.3126 2.70462 19.9893 2.57236C19.6656 2.43993 19.3186 2.37273 18.9688 2.37509Z" fill="#3C3B44"/>
</g>
<defs>
<clipPath id="clip0_4191_639">
<rect width="24" height="24" fill="white"/>
</clipPath>
</defs>
</svg>

<svg xmlns="http://www.w3.org/2000/svg" width="24" height="24" fill="none" viewBox="0 0 24 24"><g clip-path="url(#a)"><path fill="currentColor" fill-rule="evenodd" d="M18.96 1a4.03 4.03 0 0 1 2.865 1.172l.002.002a4.02 4.02 0 0 1-.035 5.713L8.503 21.175a.7.7 0 0 1-.315.18l-6.33 1.624a.688.688 0 0 1-.836-.837l1.622-6.33a.7.7 0 0 1 .18-.315L16.112 2.208A4.02 4.02 0 0 1 18.96 1M2.641 21.36l4.583-1.176-3.409-3.407zm1.97-5.706 3.735 3.734 12.04-12.04-3.734-3.735zM18.97 2.375a2.65 2.65 0 0 0-1.29.345l3.6 3.6a2.66 2.66 0 0 0 .346-1.29 2.65 2.65 0 0 0-.77-1.884 2.65 2.65 0 0 0-1.886-.77" clip-rule="evenodd"/></g><defs><clipPath id="a"><path fill="currentColor" d="M0 0h24v24H0z"/></clipPath></defs></svg>
